findly-builder/apps/searchassist/src/assets/images/pricing-plan/plan-order/payment-confirm-check.svg

<svg width="75" height="75" viewBox="0 0 75 75" fill="none" xmlns="http://www.w3.org/2000/svg">
<path fill-rule="evenodd" clip-rule="evenodd" d="M37.5 3.125C18.5156 3.125 3.125 18.5156 3.125 37.5C3.125 56.4844 18.5156 71.875 37.5 71.875C56.4844 71.875 71.875 56.4844 71.875 37.5C71.875 18.5156 56.4844 3.125 37.5 3.125ZM52.4 31.6875C52.6744 31.3739 52.8832 31.0086 53.0143 30.613C53.1454 30.2175 53.1961 29.7997 53.1633 29.3843C53.1306 28.9689 53.0151 28.5643 52.8237 28.1942C52.6322 27.824 52.3687 27.496 52.0486 27.2292C51.7285 26.9624 51.3582 26.7624 50.9597 26.6408C50.5611 26.5193 50.1423 26.4786 49.7278 26.5213C49.3133 26.564 48.9115 26.6892 48.5461 26.8895C48.1807 27.0898 47.859 27.3611 47.6 27.6875L34.1625 43.8094L27.2094 36.8531C26.62 36.2839 25.8306 35.9689 25.0112 35.976C24.1919 35.9831 23.4081 36.3118 22.8287 36.8912C22.2493 37.4706 21.9206 38.2544 21.9135 39.0737C21.9064 39.8931 22.2214 40.6825 22.7906 41.2719L32.1656 50.6469C32.4727 50.9537 32.8403 51.1933 33.245 51.3502C33.6498 51.5071 34.0828 51.578 34.5165 51.5583C34.9501 51.5386 35.3749 51.4287 35.7638 51.2358C36.1526 51.0428 36.497 50.7709 36.775 50.4375L52.4 31.6875Z" fill="#28A745"/>
</svg>

<svg width="75" height="75" fill="none" xmlns="http://www.w3.org/2000/svg"><path fill-rule="evenodd" clip-rule="evenodd" d="M37.5 3.125c-18.984 0-34.375 15.39-34.375 34.375 0 18.984 15.39 34.375 34.375 34.375 18.984 0 34.375-15.39 34.375-34.375 0-18.984-15.39-34.375-34.375-34.375Zm14.9 28.563a3.124 3.124 0 1 0-4.8-4l-13.438 16.12-6.953-6.956a3.125 3.125 0 0 0-4.418 4.419l9.375 9.375a3.126 3.126 0 0 0 4.609-.21L52.4 31.688Z" fill="#28A745"/></svg>
